X:1
T:Polka
C:traditionell
R:polka
A:boehmisch
%%textfont Helvetica-Narrow 10pt
%%begintext align
S:noten-material (lose kopien) von Elisabeth und Christoph Huspeka
%%endtext
Z:abc transcription Simon Wascher
M:2/4
L:1/8
K:G
GB B/A/B | dd B2 | cc AA | B/A/B/c/ dd |
GB B/A/B | dd B2 | cc AA | G/B/d/B/ G2 :|
|:\
AA A/B/c | BB B/c/d | dc c/B/A | cB B/A/G |
AA A/B/c | BB B/c/d | dc c/B/A | Bd B2 :|
|:\
B/B/B/B/ Bd | B/B/B/B/ BG | AA c/B/A | G/A/B/c/ d2 |
B/B/B/B/ Bd | B/B/B/B/ BG | AA c/B/A | G/B/d/B/ G2 :|
%%wordsfont Times-Italic 11pt
W:aus Simon Waschers TradArchiv
